images/Vodra.svg

<svg height="250" viewBox="0 0 250 250" width="250" xmlns="http://www.w3.org/2000/svg" xmlns:xlink="http://www.w3.org/1999/xlink"><clipPath id="a"><path d="m0 63.152344h250v186.847656h-250zm0 0"/></clipPath><clipPath id="b"><path d="m0 0h251v251h-251z"/></clipPath><path d="m250 125c0 69.035156-55.964844 125-125 125s-125-55.964844-125-125 55.964844-125 125-125 125 55.964844 125 125zm0 0" fill="#8600ce"/><path d="m240.742188 125c0 63.921875-51.820313 115.742188-115.742188 115.742188s-115.742188-51.820313-115.742188-115.742188 51.820313-115.742188 115.742188-115.742188 115.742188 51.820313 115.742188 115.742188zm0 0" fill="#fff"/><path d="m233.1875 125c0 59.75-48.4375 108.1875-108.1875 108.1875s-108.1875-48.4375-108.1875-108.1875 48.4375-108.1875 108.1875-108.1875 108.1875 48.4375 108.1875 108.1875zm0 0" fill="#8600ce"/><g clip-path="url(#a)"><g clip-path="url(#b)"><path d="m54.214844 78.628906c.035156 7.375.066406 15.03125 0 22.40625 29.644531.269532 62.667968.105469 92.3125 0 12.820312-22.164062.144531-.238281 13-22.40625-32.480469.011719-72.851563-.128906-105.3125 0zm85.996094 50.453125c-12.292969-19.480469-.3125-.414062-12.488282-19.746093-5.515625.019531-18.394531.039062-27.226562.039062-.164063 0 25.269531 42.402344 25.191406 42.546875-4.488281 7.726563-.050781.042969-4.554688 7.855469l-30.210937-50.378906c-12.035156-.109376-24.671875.15625-36.707031.046874-.097656 6.257813-.21875 16.109376-.019532 22.359376l21.367188-.0625c47.09375 77.519531-1.566406-2.34375 45.546875 75.589843 63.769531-105.839843.316406-.429687 64.023437-106.28125 13.125-.015625 13.121094-.027343 13.121094-.027343l10.089844-22.394532c-37.847656.019532 0 0-37.851562 0-48.539063 80.9375 0 0-30.28125 50.453125zm0 0" fill="#fff"/></g></g></svg>

<svg xmlns="http://www.w3.org/2000/svg" xmlns:xlink="http://www.w3.org/1999/xlink" width="250px" height="250px" viewBox="0 0 250 250" version="1.1">
<defs>
<clipPath id="clip1">
  <path d="M 0 63.152344 L 250 63.152344 L 250 250 L 0 250 Z M 0 63.152344 "/>
</clipPath>
<clipPath id="clip2">
  <rect x="0" y="0" width="251" height="251"/>
</clipPath>
<g id="surface5" clip-path="url(#clip2)">
<path style=" stroke:none;fill-rule:nonzero;fill:rgb(100%,100%,100%);fill-opacity:1;" d="M 54.214844 78.628906 C 54.25 86.003906 54.28125 93.660156 54.214844 101.035156 C 83.859375 101.304688 116.882812 101.140625 146.527344 101.035156 C 159.347656 78.871094 146.671875 100.796875 159.527344 78.628906 C 127.046875 78.640625 86.675781 78.5 54.214844 78.628906 Z M 140.210938 129.082031 C 127.917969 109.601562 139.898438 128.667969 127.722656 109.335938 C 122.207031 109.355469 109.328125 109.375 100.496094 109.375 C 100.332031 109.375 125.765625 151.777344 125.6875 151.921875 C 121.199219 159.648438 125.636719 151.964844 121.132812 159.777344 L 90.921875 109.398438 C 78.886719 109.289062 66.25 109.554688 54.214844 109.445312 C 54.117188 115.703125 53.996094 125.554688 54.195312 131.804688 L 75.5625 131.742188 C 122.65625 209.261719 73.996094 129.398438 121.109375 207.332031 C 184.878906 101.492188 121.425781 206.902344 185.132812 101.050781 C 198.257812 101.035156 198.253906 101.023438 198.253906 101.023438 L 208.34375 78.628906 C 170.496094 78.648438 208.34375 78.628906 170.492188 78.628906 C 121.953125 159.566406 170.492188 78.628906 140.210938 129.082031 Z M 140.210938 129.082031 "/>
</g>
</defs>
<g id="surface1">
<path style=" stroke:none;fill-rule:nonzero;fill:rgb(52.549022%,0%,80.784315%);fill-opacity:1;" d="M 250 125 C 250 194.035156 194.035156 250 125 250 C 55.964844 250 0 194.035156 0 125 C 0 55.964844 55.964844 0 125 0 C 194.035156 0 250 55.964844 250 125 Z M 250 125 "/>
<path style=" stroke:none;fill-rule:nonzero;fill:rgb(100%,100%,100%);fill-opacity:1;" d="M 240.742188 125 C 240.742188 188.921875 188.921875 240.742188 125 240.742188 C 61.078125 240.742188 9.257812 188.921875 9.257812 125 C 9.257812 61.078125 61.078125 9.257812 125 9.257812 C 188.921875 9.257812 240.742188 61.078125 240.742188 125 Z M 240.742188 125 "/>
<path style=" stroke:none;fill-rule:nonzero;fill:rgb(52.549022%,0%,80.784315%);fill-opacity:1;" d="M 233.1875 125 C 233.1875 184.75 184.75 233.1875 125 233.1875 C 65.25 233.1875 16.8125 184.75 16.8125 125 C 16.8125 65.25 65.25 16.8125 125 16.8125 C 184.75 16.8125 233.1875 65.25 233.1875 125 Z M 233.1875 125 "/>
<g clip-path="url(#clip1)" clip-rule="nonzero">
<use xlink:href="#surface5"/>
</g>
</g>
</svg>
